icons/Others/basketball-fill.svg

<svg viewBox="0 0 24 24" xmlns="http://www.w3.org/2000/svg"><path d="M12.366 13.366L14.1407 14.3911C13.05 16.8036 12.9953 19.4669 13.8296 21.8314C13.2375 21.9426 12.6255 22 12 22C10.5353 22 9.14414 21.6851 7.89054 21.1193L12.366 13.366ZM15.8835 15.3976L20.1168 17.8423C19.0224 19.3601 17.5128 20.5586 15.7543 21.2714C15.1047 19.511 15.0756 17.5348 15.7624 15.7017L15.8835 15.3976ZM8.85892 11.3417L10.634 12.366L6.15773 20.1168C4.5194 18.9355 3.25309 17.2704 2.56813 15.3308C4.92702 14.8924 7.11579 13.6115 8.65334 11.6179L8.85892 11.3417ZM21.9051 10.6165C21.9677 11.0687 22 11.5306 22 12C22 13.4647 21.6851 14.8559 21.1193 16.1095L16.8838 13.6649C18.1057 12.0497 19.8575 11.0078 21.7497 10.6436L21.9051 10.6165ZM2.8807 7.89054L7.11588 10.3356C5.86043 11.9949 4.0458 13.0491 2.09489 13.3854C2.03239 12.932 2 12.4698 2 12C2 10.5353 2.3149 9.14414 2.8807 7.89054ZM17.8423 3.88318C19.4803 5.06428 20.7465 6.72901 21.4315 8.66817C19.0721 9.108 16.8836 10.3891 15.3463 12.3826L15.1407 12.6588L13.366 11.634L17.8423 3.88318ZM12 2C13.4647 2 14.8559 2.3149 16.1095 2.8807L11.634 10.634L9.85892 9.60983C10.95 7.19703 11.0048 4.53332 10.1704 2.16848C10.7625 2.05742 11.3745 2 12 2ZM8.24679 2.72936C8.89548 4.48945 8.92444 6.46595 8.2373 8.2992L8.11613 8.60335L3.88318 6.15773C4.93611 4.69744 6.37339 3.53272 8.04682 2.81177L8.24679 2.72936Z"/></svg>

<svg xmlns="http://www.w3.org/2000/svg" viewBox="0 0 24 24">
    <g>
        <path fill="none" d="M0 0h24v24H0z"/>
        <path d="M12.366 13.366l1.775 1.025a9.98 9.98 0 0 0-.311 7.44A9.911 9.911 0 0 1 12 22a9.964 9.964 0 0 1-4.11-.88l4.476-7.754zm3.517 2.032l4.234 2.444a10.033 10.033 0 0 1-4.363 3.43 7.988 7.988 0 0 1 .008-5.57l.121-.304zM8.86 11.342l1.775 1.024-4.476 7.75a10.026 10.026 0 0 1-3.59-4.785 9.978 9.978 0 0 0 6.085-3.713l.206-.276zm13.046-.726c.063.453.095.915.095 1.384a9.964 9.964 0 0 1-.88 4.11l-4.236-2.445a7.985 7.985 0 0 1 4.866-3.021l.155-.028zM2.881 7.891l4.235 2.445a7.99 7.99 0 0 1-5.021 3.05A10.14 10.14 0 0 1 2 12c0-1.465.315-2.856.88-4.11zm14.961-4.008a10.026 10.026 0 0 1 3.59 4.785 9.985 9.985 0 0 0-6.086 3.715l-.205.276-1.775-1.025 4.476-7.75zM12 2c1.465 0 2.856.315 4.11.88l-4.476 7.754L9.859 9.61a9.98 9.98 0 0 0 .311-7.442A9.922 9.922 0 0 1 12 2zm-3.753.73a7.992 7.992 0 0 1-.01 5.57l-.12.303-4.234-2.445a10.036 10.036 0 0 1 4.164-3.346l.2-.083z"/>
    </g>
</svg>
